X:506
T: "Die Treue"
N: Z1186
O: Europa, Mitteleuropa, Deutschland, Nord - Deutschland
R: Liebes - Lied
M: 6/8
L: 1/8
K: C
G, | C2CB,2B, | A,2A,G,3 |
F,2F,E,E,G, | G,2B,C3 |
CB,CEDC | DCDFEE |
E2EEDC | D3C2

@@@ Tune index: 10264
